X:44
T:Sarah Marie's Reel
R:reel
C:Brenda Stubbert
O:Cape Breton Island
S:http://www.cranfordpub.com
Z:psc, (re-formatted,updated 9/19/04)
N:http://www.cranfordpub.com/stubbert
H:                                                        copyrights Stubbert Music, SOCAN
L:1/8
Q:333
M:C|
K:Dmix
g|Tf2 ed (B/^c/d) AB|cGEC EFGg|Tf2 ed (B/^c/d) AB|cGEG FDDg|
Tf2 ed (B/^c/d) AB|cGEC EFGE|DEFA GABd|cGEG FDD||
g|fd d/d/d fdge|fd d/d/d gceg|fd d/d/d AdFA|GcEG FDDg|
fd d/d/d fdge|fd d/d/d cGEC|DEFA GABd|cGEG FDD|]
